X: 24
T:Cowboy Jig - A Version
M:6/8
L:1/8
Q:90
C:Traditional
S:Transcribed From Alisdair Fraser "The Road North"by S.C.
R:Jig
K:A
c-B|:AE-F A2 B|c-eg a-ec|B-cd c-AB|~c3-c-AF| AE-F A2 B|c-eg a-ec|!
B-cd ~c2 B|[1c-AF A2 c:|[2c-AF A-ce||~f3 ~f3|f2 ((3g/2a/2g/2 fe)c|e3-e3|
!
e2 ((3f/2g/2f/2 e)cA|d2 e ~f2 g|a-ec B2 d|c-AB c-dB|[1~BAF A-ce:|[2~B-AF
A3|]

